src/assets/duotone/Bill.svg

<svg width="24" height="24" viewBox="0 0 24 24"  xmlns="http://www.w3.org/2000/svg">
<path opacity="0.4" d="M3.66992 2.5V14.47C3.66992 15.45 4.12992 16.38 4.91992 16.97L10.1299 20.87C11.2399 21.7 12.7699 21.7 13.8799 20.87L19.0899 16.97C19.8799 16.38 20.3399 15.45 20.3399 14.47V2.5H3.66992Z" />
<path d="M22 3.25H2C1.59 3.25 1.25 2.91 1.25 2.5C1.25 2.09 1.59 1.75 2 1.75H22C22.41 1.75 22.75 2.09 22.75 2.5C22.75 2.91 22.41 3.25 22 3.25Z" />
<path d="M16 8.75H8C7.59 8.75 7.25 8.41 7.25 8C7.25 7.59 7.59 7.25 8 7.25H16C16.41 7.25 16.75 7.59 16.75 8C16.75 8.41 16.41 8.75 16 8.75Z" />
<path d="M16 13.75H8C7.59 13.75 7.25 13.41 7.25 13C7.25 12.59 7.59 12.25 8 12.25H16C16.41 12.25 16.75 12.59 16.75 13C16.75 13.41 16.41 13.75 16 13.75Z" />
</svg>

<?xml version="1.0" encoding="UTF-8"?>
<svg width="24" height="24" viewBox="0 0 24 24" xmlns="http://www.w3.org/2000/svg">
 <path d="m3.6699 2.5v11.97c0 0.98 0.46 1.91 1.25 2.5l5.21 3.9c1.11 0.83 2.64 0.83 3.75 0l5.21-3.9c0.79-0.59 1.25-1.52 1.25-2.5v-11.97h-16.67z" opacity=".4"/>
 <path d="m22 3.25h-20c-0.41 0-0.75-0.34-0.75-0.75s0.34-0.75 0.75-0.75h20c0.41 0 0.75 0.34 0.75 0.75s-0.34 0.75-0.75 0.75z"/>
 <path d="m16 8.75h-8c-0.41 0-0.75-0.34-0.75-0.75s0.34-0.75 0.75-0.75h8c0.41 0 0.75 0.34 0.75 0.75s-0.34 0.75-0.75 0.75z"/>
 <path d="m16 13.75h-8c-0.41 0-0.75-0.34-0.75-0.75s0.34-0.75 0.75-0.75h8c0.41 0 0.75 0.34 0.75 0.75s-0.34 0.75-0.75 0.75z"/>
</svg>
